X:1
T:Tambora, CMD
T:Tambora, CMD
T:B. R. Mann, 1921
T:Public Domain Courtesy of the Cyber Hymnal™
C:B. R. Mann, 1921
Z:Public Domain
Z:Courtesy of the Cyber Hymnal™
%%score ( 1 2 ) ( 3 4 )
L:1/8
Q:1/4=108
M:4/4
K:F
V:1 treble 
V:2 treble 
V:3 bass 
V:4 bass 
V:1
 (FG) | [FA]2 [FA]2 [Fc]2 [Fc]2 | [FA]2 [EG]2 F2 [CF]2 | [CE]2 [EG]2 F2 [EG]2 | [FA]6 (FG) | %5
 [FA]2 [FA]2 [Fc]2 [Fc]2 | [FA]2 [EG]2 [DF]2 [DF]2 | [EG]2 [EG]2 [FA]2 [EG]2 | F6 A2 | c6 [CF]2 | %10
 A6 [CF]2 | [EG]2 [EG]2 F2 [EG]2 | [FA]6 A2 | c6 [CF]2 | A6 F2 | [EG]2 [EG]2 [FA]2 [EG]2 | F6 |] %17
V:2
 C2 | x8 | x4 F2 x2 | x4 F2 x2 | x6 C2 | x8 | x8 | x8 | F6 x2 | F2 F2 F2 x2 | F2 F2 F2 x2 | %11
 x4 F2 x2 | x8 | F2 F2 F2 x2 | F2 F2 F2 F2 | x8 | F6 |] %17
V:3
 (A,B,) | [F,C]2 [F,C]2 [F,A,]2 [F,A,]2 | [F,C]2 [C,B,]2 [F,A,]2 [F,A,]2 | %3
 [C,G,]2 [C,C]2 [A,,C]2 [C,C]2 | [F,C]6 (A,B,) | [F,C]2 [F,C]2 [F,A,]2 [F,A,]2 | %6
 [F,C]2 [C,B,]2 [D,A,]2 [D,A,]2 | [C,B,]2 [C,B,]2 [C,C]2 [C,B,]2 | [F,A,]6 z2 | %9
 [F,A,]2 [F,A,]2 [F,A,]2 [F,A,]2 | [F,C]2 [F,C]2 [F,C]2 [F,A,]2 | [C,C]2 [C,C]2 [A,,C]2 [C,C]2 | %12
 [F,C]6 z2 | [F,A,]2 [F,A,]2 [F,A,]2 [F,A,]2 | [F,C]2 [F,C]2 [F,C]2 [F,A,]2 | %15
 [C,B,]2 [C,B,]2 [C,C]2 [C,B,]2 | [F,A,]6 |] %17
V:4
 F,2 | x8 | x8 | x8 | x6 F,2 | x8 | x8 | x8 | x8 | x8 | x8 | x8 | x8 | x8 | x8 | x8 | x6 |] %17

